X: 10
T:Dick Gossip's
M:C|
L:1/8
R:reel
K:D
AG|F2 AF BFAF|F2 AF GFED|E2 EF GFED|EDEF GFED|
F2 AF BFAF|F2 AF GFED|A2 AB cABc| dfec d2:|
|:ef|gB(3BBB gBaB|gB(3BBB gfed|(3cBA eA fAeA|(3cBA ed cdef|
gB(3BBB gBaB|gB(3BBB gfed|cdef gece|dfec d2 :||
